libs/ui/packages/crypto-icons/src/svg/HT.svg

<svg width="24" height="24" viewBox="0 0 24 24" fill="none">
<path d="M13.8496 8.43716C13.8496 5.79716 12.5693 3.55766 11.6093 2.83766C11.6093 2.83766 11.5291 2.75741 11.5291 2.91716C11.4496 7.95716 8.88906 9.31766 7.52931 11.2377C4.24956 15.4774 7.28931 20.1972 10.4093 21.0777C12.1696 21.5577 10.0096 20.1972 9.76956 17.3974C9.36906 13.8777 13.8496 11.3172 13.8496 8.43716Z" fill="#2A3069"/>
<path d="M15.5296 10.1974C15.3691 10.8372 14.7293 12.1977 13.8496 13.4772C10.8893 17.7177 12.5693 19.7974 13.5293 20.9172C14.0896 21.5577 13.5293 20.9172 14.8891 20.2774C14.9693 20.1972 17.6093 18.8374 17.8493 15.7174C18.1696 12.6777 16.2496 10.7577 15.5296 10.1974Z" fill="#2A3069"/>
</svg>

<svg width="24" height="24" viewBox="0 0 24 24" fill="none"><path fill="#2a3069" d="M13.85 8.437c0-2.64-1.28-4.88-2.24-5.6 0 0-.08-.08-.08.08-.08 5.04-2.64 6.4-4 8.32-3.28 4.24-.24 8.96 2.88 9.84 1.76.48-.4-.88-.64-3.68-.4-3.52 4.08-6.08 4.08-8.96"/><path fill="#2a3069" d="M15.53 10.197c-.16.64-.8 2-1.68 3.28-2.96 4.24-1.28 6.32-.32 7.44.56.64 0 0 1.36-.64.08-.08 2.72-1.44 2.96-4.56.32-3.04-1.6-4.96-2.32-5.52"/></svg>
